X: 1439
T: Ne Hevâ-yı Bağ Sâzet...
C: Dede Efendi
O: Turkey
F: http://compmusic.upf.edu/node/140
N: acemasiran--nakis--yuruksemai--ne_hevayi--dede_efendi
N: makam= acemasiran
N: form= nakis
N: usul= yuruksemai = 6/8
M: 6/8
L: 1/16
K: C _B   
Q: 1/4=90
%%MIDI tuningsystem comma53
f8 a2g2g2f2 f2e2e2d2  | c4d2f2 e2d2c4 e2f2g2f2  | \
w:  Ah  ne  *  he *  vâ  |  yı  ba *  *  *  ğı  sâ  | 
f6z2 d4d4 e2f2{g}f2e2  | 
w:  zed  ne  he vâ  | 
d4e2g2 f2e2d4 ^3/4c2d2e2d2  | d6z2 a4a4 b8  | \
w:  yı  ba *  *  *  ğı  sâ  |  zed  ne  ke nar_  | 
b2a2a8a2g2 g2_7/8a2g2a2  | 
w:  ı  *  kiş ti  *  mâ  | 
c'2_2/4b2_7/8a2g2 g2f2f2e2 f6z2  | \
w:  râ    | 
d8 d4d4 e2f2{g}f2e2  | d4e2g2 f2e2d4 ^3/4c2d2e2d2  | 
w:  Ah  tü  be her   |  kü câ  *  *  *  ki  ba  | 
d6z2 c4c4 c2_e2d2c2  | B4c2_e2 d2c2B4 A2B2c2d2  | \
w:  şî  tü  be her   |  kü câ  *  *  *  ki  ba  | 
c2B2A2G2 F4G4 A2G2{B}A2G2  | 
w:  şî  *  *  *  bü ved_ an   | 
F4G2B2 A2G2F4 E2F2G2F2  | F12C2DE F6z2  | \
w:  be hiş *  *  *  ti  mâ  |  râ   SAZ  | 
F8 A4G8B4  | A8 c3_2/4BA2B2 c6z2  | 
w:  Ten  ni  ten  ni   |  ten   | 
c4_3/4d4 d2c2c2_2/4B2 A4B4  | c6d2 c2B2A2G2 F6z2  | \
w:  ser *  vi *  nâ *  *  zı   |  men   SAZ  | 
F8 A4G8B4  | A8 c3_2/4BA2B2 c6z2  | 
w:  Ten  ni  ten  ni   |  ten   | 
c4_3/4d4 d2c2c2_2/4B2 A4B4  | c6_7/8a2 g2f2f2e2 f6z2  | \
w:  ser *  vi *  nâ *  *  zı   |  men   SAZ  | 
f8 f4f4 e4f4  | 
w:  Ten  ni  ten  *  ni   | 
g4_7/8a4 g4f4 e2_3/4d4c2  | f8 f2e2e2_3/4d2 d4d2c2  | \
w:  ten   |  dil nü *  vâ *  *  zı   | 
c6_7/8a2 g2f2f2e2 f6z2  | 
w:  men   SAZ  | 
f8 f4f4 e4f4  | g4_7/8a4 g4f4 e2_3/4d4c2  | \
w:  Ten  ni  ten  *  ni   |  ten   | 
f8 f2e2e2_3/4d2 d4d2c2  | c8 _7/8a3gf2e2 f6z2  | 
w:  dil nü *  vâ *  *  zı   |  men   SAZ  | 
f8 f4f4 f2e2{g}f2e2  | e2_3/4d2c4 d4e8-e2z2  | \
w:  Nol du  bu  ben   |  bî  *  *  di le   | 
e8 _7/8a4a2g2 g2f2f2e2  | 
w:  ben ze di  *  dil   | 
e2_3/4d2d4 d2c2f2e2 d2c2B4  | z4B4 B4B4 B8  | \
w:  bül *  *  bü *  le   |  uğ ra dım  ey   | 
B8 d4c4 B6A2  | A4G4 F4B12  | 
w:  meh  ne  ya man   |  müş *  ki le   | 
B4A8A2G2 A3G.F4  | G4A4 G4F4 E2F2G2F2  | \
w:   |  dâd_ *  *  e lin  | 
F8 f4e2g2 f6z2  | 
w:  den   SAZ  | 
e4f8e2d2 a4g2f2  | e4f8z4 f8  | b4a4 g4f4 e2f2g2f2  | \
w:  Ah   |  ah  *  fer  |  yâd_ *  *  e lin  | 
f8 f3ed2e2 f6z2  | 
w:  den   SAZ  | 
d6z2 d4d4 e2f2{g}f2e2  | d4e2g2 f2e2d4 ^3/4c2d2e2d2  | \
w:  Ah  tü  be her   |  kü câ  *  *  *  ki  ba  | 
d6z2 c4c4 c2_e2d2c2  | 
w:  şî  tü  be her   | 
B4c2_e2 d2c2B4 A2B2c2d2  | c2B2A2G2 F4G4 A2G2{B}A2G2  | \
w:  kü câ  *  *  *  ki  ba  |  şî  *  *  *  bü ved_ an   | 
F4G2B2 A2G2F4 E2F2G2F2  | 
w:  be hiş *  *  *  ti  mâ  | 
F8 A3GF2G2 A6z2  | A8 G4G4 A8  | A4A4 {_2/4B}A2B2G4 d2c4_3/4B2  | \
w:  râ   SAZ  |  Ah  ne  şü kû  |  fe  i  *  *  *  ne  ber  | 
A6z2 d4d4 c8  | 
w:  gî  ne  şü kû  | 
d4e8e2f2 e2d2c2d2  | e6z2 f4f4 f6e2  | \
w:  fe  i  ne  *  ber  |  gî  ne  se mer   | 
e4e8e2d2 d2_7/8e2d2e2  | 
w:  ne  sâ ye  *  dâ  | 
g2^3/4f2_7/8e2d2 d2c2c2_2/4B2 c6z2  | \
w:  rem   | 
e4f8e2d2 a4g2f2  | e4f8c2de f6z2  | 
w:  ah   |  ah  SAZ  | 
d8 d4d4 e2f2{g}f2e2  | d4e2g2 f2e2d4 ^3/4c2d2e2d2  | \
w:  Ah  tü  be her   |  kü câ  *  *  *  ki  ba  | 
d6z2 c4c4 c2_e2d2c2  | 
w:  şî  tü  be her   | 
B4c2_e2 d2c2B4 A2B2c2d2  | c2B2A2G2 F4G4 A2G2{B}A2G2  | \
w:  kü câ  *  *  *  ki  ba  |  şî  *  *  *  bü ved_ an   | 
F4G2B2 A2G2F4 E2F2G2F2  | 
w:  be hiş *  *  *  ti  mâ  | 
F12C2DE F6z2  | F8 A4G8B4  | A8 c3_2/4BA2B2 c6z2  | \
w:  râ   SAZ  |  Ten  ni  ten  ni   |  ten   | 
c4_3/4d4 d2c2c2_2/4B2 A4B4  | 
w:  ser *  vi *  nâ *  *  zı   | 
c6d2 c2B2A2G2 F6z2  | F8 A4G8B4  | A8 c3_2/4BA2B2 c6z2  | \
w:  men   SAZ  |  Ten  ni  ten  ni   |  ten   | 
c4_3/4d4 d2c2c2_2/4B2 A4B4  | 
w:  ser *  vi *  nâ *  *  zı   | 
c6_7/8a2 g2f2f2e2 f6z2  | f8 f4f4 e4f4  | \
w:  men   SAZ  |  Ten  ni  ten  *  ni   | 
g4_7/8a4 g4f4 e2_3/4d4c2  | f8 f2e2e2_3/4d2 d4d2c2  | 
w:  ten   |  dil nü *  vâ *  *  zı   | 
c6_7/8a2 g2f2f2e2 f6z2  | f8 f4f4 e4f4  | \
w:  men   SAZ  |  Ten  ni  ten  *  ni   | 
g4_7/8a4 g4f4 e2_3/4d4c2  | f8 f2e2e2_3/4d2 d4d2c2  | 
w:  ten   |  dil nü *  vâ *  *  zı   | 
c8 _7/8a3gf2e2 f6z2  | f8 f4f4 f2e2{g}f2e2  | \
w:  men   SAZ  |  Nol du  bu  ben   | 
e2_3/4d2c4 d4e8-e2z2  | 
w:  bî  *  *  di le   | 
e8 _7/8a4a2g2 g2f2f2e2  | e2_3/4d2d4 d2c2f2e2 d2c2B4  | \
w:  ben ze di  *  dil   |  bül *  *  bü *  le   | 
z4B4 B4B4 B8  | 
w:  uğ ra dım  ey   | 
B8 d4c4 B6A2  | A4G4 F4B12  | B4A8A2G2 A3G.F4  | \
w:  meh  ne  ya man   |  müş *  ki le   |   | 
G4A4 G4F4 E2F2G2F2  | 
w:  dâd_ *  *  e lin  | 
F8 f4e2g2 f6z2  | e4f8e2d2 a4g2f2  | \
w:  den   SAZ  |  Ah   | 
e4f8z4 f8  | b4a4 g4f4 e2f2g2f2  | 
w:  ah  *  fer  |  yâd_ *  *  e lin  | 
f8 f3ed2e2 f6z2  | d6z2 d4d4 e2f2{g}f2e2  | \
w:  den   SAZ  |  Ah  tü  be her   | 
d4e2g2 f2e2d4 ^3/4c2d2e2d2  | 
w:  kü câ  *  *  *  ki  ba  | 
d6z2 c4c4 c2_e2d2c2  | B4c2_e2 d2c2B4 A2B2c2d2  | \
w:  şî  tü  be her   |  kü câ  *  *  *  ki  ba  | 
c2B2A2G2 F4G4 A2G2{B}A2G2  | 
w:  şî  *  *  *  bü ved_ an   | 
F4G2B2 A2G2F4 E2F2G2F2  | F8 |
w:  be hiş *  *  *  ti  mâ  |  râ    | 


